dist/svgs/devui-icons/op/go-code-problem.svg

<svg xmlns="http://www.w3.org/2000/svg" viewBox="0 0 16 16"><path d="M7 12v2H1V2h5l2 2h7v3h-2V6H7.394l-2-2H3v8h4zm5-3h4v2H8l4-4v2zm0 5H8v-2h8l-4 4v-2z"/></svg>

<?xml version="1.0" encoding="UTF-8"?>
<svg width="16px" height="16px" viewBox="0 0 16 16" version="1.1" xmlns="http://www.w3.org/2000/svg" xmlns:xlink="http://www.w3.org/1999/xlink">
    <title>操作/源码问题</title>
    <desc>Created with Sketch.</desc>
    <g id="操作/源码问题" stroke="none" stroke-width="1" fill="none" fill-rule="evenodd">
        <g>
            <path d="M7,12 L7,14 L1,14 L1,2 L6,2 L8,4 L15,4 L15,7 L13,7 L13,6 L7.39444872,6 L5.39444872,4 L3,4 L3,12 L7,12 Z M12,9 L16,9 L16,11 L8,11 L12,7 L12,9 Z M12,14 L8,14 L8,12 L16,12 L12,16 L12,14 Z" id="合并形状" fill="#293040" fill-rule="nonzero"></path>
        </g>
    </g>
</svg>
